!!!COM: Clementi, Muzio
!!!CDT: 1752/01/23/-1832/03/10/
!!!ODT: ~1800///
!!!OTL: Sonata No. 4 in F Major, Op. 36, Mvmt. 1
!!!OPS: Op. 36
!!!ONM: No. 4
!!!OMV: 1. Con spirito
**kern	**kern	**dynam
*staff2	*staff1	*staff1/2
*Ipiano	*Ipiano	*Ipiano
*>[A,A,B,B]	*>[A,A,B,B]	*>[A,A,B,B]
*>A	*>A	*>A
*clefF4	*clefG2	*clefG2
*k[b-]	*k[b-]	*k[b-]
*F:	*F:	*F:
*M3/4	*M3/4	*M3/4
*MM120	*MM120	*MM120
=1-	=1-	=1-
8FF/L	2f/	f
8F/	.	.
8FF/	.	.
8F/	.	.
8FF/	8.a/L	.
8F/J	.	.
.	16f/Jk	.
=2	=2	=2
8FF/L	2cc\	.
8F/	.	.
8FF/	.	.
8F/	.	.
8FF/	16b-/LL	.
.	16a/	.
8F/J	16g/	.
.	16f/JJ	.
=3	=3	=3
8FF/L	8e/L	.
8F/	8g/	.
8FF/	8b-/	.
8F/	8dd/	.
8FF/	8cc/	.
8F/J	8b-/J	.
=4	=4	=4
8FF/L	4e/ 4g#/	.
8F/	.	.
8FF/	4f/ 4a/	.
8F/	.	.
8FF/	4r	.
8F/J	.	.
=5	=5	=5
*	*^	*
8FF/L	4.ff/	2dd\	.
8F/J	.	.	.
4F\	.	.	.
.	16gg/LL	.	.
.	16ff/JJ	.	.
4r	8ee/L	8cc\L	.
.	8dd/J	8b-\J	.
=6	=6	=6	=6
8FF/L	4.cc/	2a\	.
8F/J	.	.	.
4F\	.	.	.
.	16dd/LL	.	.
.	16cc/JJ	.	.
4r	8b-/L	8g\L	.
.	8a/J	8f\J	.
*	*v	*v	*
=7	=7	=7
2BB-/	16g/LL	.
.	16a/	.
.	16g/	.
.	16f#/JJ	.
.	16g/LL	.
.	16a/	.
.	16b-/	.
.	16cc/JJ	.
4BBn/	8dd/L	.
.	8fn/J	.
=8	=8	=8
4C/	8f/L	.
.	8e/	.
4CC/	8d/	.
.	8c/	.
4r	8d/	.
.	8e/J	.
=9	=9	=9
8FF/L	2A/ 2f/	.
8F/	.	.
8FF/	.	.
8F/	.	.
8FF/	16a/LL	.
.	16f/	.
8F/J	16a/	.
.	16f/JJ	.
=10	=10	=10
8FF/L	2cc\	.
8F/	.	.
8FF/	.	.
8F/	.	.
8FF/	16b-/LL	.
.	16a/	.
8F/J	16g/	.
.	16f/JJ	.
=11	=11	=11
8FF/L	8e/L	.
8F/	8g/	.
8FF/	8b-/	.
8F/	8dd/	.
8FF/	8cc/	.
8F/J	8b-/J	.
=12	=12	=12
8FF/L	4e/ 4g#/	.
8F/	.	.
8FF/	4f/ 4a/	.
8F/	.	.
8FF/	4r	.
8F/J	.	.
=13	=13	=13
8Bn\L	4.ff\	p
8G\	.	.
8B\	.	.
8G\	16aa\LL	.
.	16ff\JJ	.
8c\	8ee\L	.
8G\J	8gg\J	.
=14	=14	=14
8f\L	4.bn\	.
8G\	.	.
8f\	.	.
8G\	16dd\LL	.
.	16b\JJ	.
8e\	8cc/L	.
8G\J	8g/J	.
=15	=15	=15
8Bn\L	16ff\LL	.
.	16gg\	.
8G\	16ff\	.
.	16ee\JJ	.
8B\	16ff\LL	.
.	16aa\	.
8G\	16gg\	.
.	16ff\JJ	.
8c\	16ee\LL	.
.	16gg\	.
8G\J	16ee\	.
.	16cc\JJ	.
=16	=16	=16
8f\L	16bn\LL	.
.	16cc\	.
8G\	16b\	.
.	16a\JJ	.
8f\	16b\LL	.
.	16dd\	.
8G\	16cc\	.
.	16b\JJ	.
8e\	16cc\LL	.
.	16ee\	.
8G\J	16gg\	.
.	16ccc\JJ	.
=17	=17	=17
8f\	16r	.
.	16aa\LL	.
8r	16ff\	.
.	16dd\JJ	.
8g\	16r	.
.	16gg\LL	.
8r	16ee\	.
.	16cc\JJ	.
8G\	16r	.
.	16ff\LL	.
8r	16dd\	.
.	16bn\JJ	.
=18	=18	=18
4c\ 4e\	8r	.
.	16cc\LL	.
.	16dd\JJ	.
4r	8ee\L	.
.	8cc\ 8ee\	.
4r	8cc\ 8ee\	.
.	8cc\ 8ee\J	.
=19	=19	=19
8r	4ee\ 4gg\	.
16g\LL	.	.
16f#\JJ	.	.
8g\L	2dd\ 2ffn\	.
8G\	.	.
8A\	.	.
8Bn\J	.	.
=20	=20	=20
4c\	8r	.
.	16cc\LL	.
.	16dd\JJ	.
4r	8ee\L	.
.	8cc\ 8ee\	.
4r	8cc\ 8ee\	.
.	8cc\ 8ee\J	.
=21	=21	=21
8r	4ee\ (4gg\	.
16g\LL	.	.
16f#\JJ	.	.
8g\L	2dd\ 2ffn\)	.
8G\	.	.
8A\	.	.
8Bn\J	.	.
=22	=22	=22
8.c\L	8.cc\ 8.ee\L	.
16F\Jk	16dd\ 16ff\Jk	.
4G\	4cc\ 4ee\	.
4GG/	4bn\ 4dd\	.
=23	=23	=23
4C/	8r	.
.	16cc/LL	.
.	16g/JJ	.
4r	8e/L	.
.	8c/ 8e/	.
4r	8c/ 8e/	.
.	8c/ 8e/J	.
=24	=24	=24
8r	4e/ (4g/	.
16G\LL	.	.
16F#\JJ	.	.
8G/L	2d/ 2fn/)	.
8GG/	.	.
8AA/	.	.
8BBn/J	.	.
=25	=25	=25
4C/	8r	.
.	16cc/LL	.
.	16g/JJ	.
4r	8e/L	.
.	8c/ 8e/	.
4r	8c/ 8e/	.
.	8c/ 8e/J	.
=26	=26	=26
8r	4e/ (4g/	.
16G\LL	.	.
16F#\JJ	.	.
8G/L	2d/ 2fn/)	.
8GG/	.	.
8AA/	.	.
8BBn/J	.	.
=27	=27	=27
8C/L	16e/LL	.
.	16c/	.
8FF/J	16f/	.
.	16d/JJ	.
4GG/	8c/ 8e/L	.
.	8c/ 8e/	.
4GG/	8Bn/ 8d/	.
.	8B/ 8d/J	.
=28	=28	=28
8CC/L	4.c/	.
8C/J	.	.
4C/	.	.
.	16d/LL	.
.	16e/JJ	.
4r	16f/LL	.
.	16g/	.
.	16a/	.
.	16bn/JJ	.
=29	=29	=29
8CC/L	4.cc\	.
8C/J	.	.
4C/	.	.
.	16dd\LL	.
.	16ee\JJ	.
4r	16ff\LL	.
.	16gg\	.
.	16aa\	.
.	16bbn\JJ	.
=30	=30	=30
4CC/ 4C/	4ccc'\	.
4CC/ 4C/	4e/ 4g/ 4cc/	.
4r	4r	.
=31:|!|:	=31:|!|:	=31:|!|:
*>B	*>B	*>B
2.c\	8r	.
.	16e/LL	p
.	16g/JJ	.
.	8cc\L	.
.	8cc\	.
.	8cc\	.
.	8cc\J	.
=32	=32	=32
2.c\	8r	.
.	16f/LL	.
.	16bn/JJ	.
.	8dd\L	.
.	8dd\	.
.	8dd\	.
.	8dd\J	.
=33	=33	=33
2.c\	8r	.
.	16g/LL	.
.	16b-/JJ	.
.	8ee\L	.
.	8ee\	.
.	8ee\	.
.	8ee\J	.
=34	=34	=34
8c#\L	16r	.
.	16a\LL	f
8A\	16cc#\	.
.	16ee\JJ	.
8c#\	8aa\L	.
8A\	8aa\J	.
8c#\	16aa\LL	.
.	16bb-\	.
8A\J	16aa\	.
.	16gg\JJ	.
=35	=35	=35
8d\L	16ff\LL	.
.	16aa\	.
8A\	16gg\	.
.	16ff\JJ	.
8e\	16ee\LL	.
.	16gg\	.
8A\	16ff\	.
.	16ee\JJ	.
8f\	16dd\LL	.
.	16ff\	.
8A\J	16ee\	.
.	16dd\JJ	.
=36	=36	=36
8c#\L	16r	.
.	16a\LL	.
8A\	16cc#\	.
.	16ee\JJ	.
8c#\	8aa\L	.
8A\	8aa\J	.
8c#\	16aa\LL	.
.	16eee\	.
8A\J	16ccc#\	.
.	16gg\JJ	.
=37	=37	=37
8d\L	16ff\LL	.
.	16aa\	.
8A\	16ff\	.
.	16aa\JJ	.
8e\	16ee\LL	.
.	16gg\	.
8A\	16ee\	.
.	16gg\JJ	.
8f\	16dd\LL	.
.	16ff\	.
8A\J	16dd\	.
.	16ff\JJ	.
*clefG2	*	*
=38	=38	=38
8f#/L	16ccn\LL	p
.	16ee-\	.
8f#/J	16cc\	.
.	16ee-\JJ	.
4f#/	16cc\LL	.
.	16ee-\	.
.	16cc\	.
.	16ee-\JJ	.
4r	16cc\LL	.
.	16dd\	.
.	16cc\	.
.	16dd\JJ	.
=39	=39	=39
8g/L	16cc\LL	.
.	16dd\	.
8g/J	16cc\	.
.	16dd\JJ	.
4g/	16a\LL	.
.	16dd\	.
.	16a\	.
.	16dd\JJ	.
4r	16b-\LL	.
.	16dd\	.
.	16b-\	.
.	16dd\JJ	.
=40	=40	=40
8en/L	16b-\LL	.
.	16dd-\	.
8e/J	16b-\	.
.	16dd-\JJ	.
4e/	16b-\LL	.
.	16dd-\	.
.	16b-\	.
.	16dd-\JJ	.
4r	16b-\LL	.
.	16cc\	.
.	16b-\	.
.	16cc\JJ	.
=41	=41	=41
8f/L	16b-\LL	.
.	16cc\	.
8f/J	16b-\	.
.	16cc\JJ	.
4f/	16g/LL	.
.	16cc/	.
.	16g/	.
.	16cc/JJ	.
4r	16a\LL	.
.	16cc\	.
.	16a\	.
.	16cc\JJ	.
*clefF4	*	*
=42	=42	=42
8G\ 8d\L	16bn\LL	.
.	16ff\	.
8G\ 8d\	16b\	.
.	16ff\JJ	.
8G\ 8d\	16b\LL	.
.	16ff\	.
8G\ 8d\	16b\	.
.	16ff\JJ	.
8G\ 8d\	16b\LL	.
.	16ff\	.
8G\ 8d\J	16b\	.
.	16ff\JJ	.
=43	=43	=43
8C\L	16ee\LL	.
.	16cc\	.
8c\	16bn\	.
.	16cc\JJ	.
8C\	16dd\LL	.
.	16cc\	.
8c\	16b\	.
.	16cc\JJ	.
8C\	16ff\LL	.
.	16dd\	.
8c\J	16cc\	.
.	16dd\JJ	.
=44	=44	=44
8C\L	16gg\LL	.
.	16ee\	.
8c\	16dd\	.
.	16ee\JJ	.
8C\	16ff\LL	.
.	16ee\	.
8c\	16dd\	.
.	16ee\JJ	.
8C\	16aa\LL	.
.	16ff\	.
8c\J	16ee\	.
.	16ff\JJ	.
=45	=45	=45
8C\L	16bb-\LL	ff
.	16aa\	.
8c\	16gg\	.
.	16aa\JJ	.
8C\	16bb-\LL	.
.	16aa\	.
8c\	16gg\	.
.	16aa\JJ	.
8C\	16bb-\LL	.
.	16aa\	.
8c\J	16gg\	.
.	16aa\JJ	.
=46	=46	=46
4C/	8bb-'\L	.
.	8aa'\	.
4r	8gg'\	.
.	8ff'\	.
4r	8ee'\	.
.	8dd'\J	.
=47	=47	=47
2.r	8cc'/L	p
.	8bn'/	.
.	8b-'/	.
.	8a'/	.
.	8a-'/	.
.	8g'/J	.
=48	=48	=48
8FF/L	2f/	.
8F/	.	.
8FF/	.	.
8F/	.	.
8FF/	8.an/L	.
8F/J	.	.
.	16f/Jk	.
=49	=49	=49
8FF/L	2cc\	.
8F/	.	.
8FF/	.	.
8F/	.	.
8FF/	16b-/LL	.
.	16a/	.
8F/J	16g/	.
.	16f/JJ	.
=50	=50	=50
8FF/L	8e/L	.
8F/	8g/	.
8FF/	8b-/	.
8F/	8dd/	.
8FF/	8cc/	.
8F/J	8b-/J	.
=51	=51	=51
8FF/L	4e/ 4g#/	.
8F/	.	.
8FF/	4f/ 4a/	.
8F/	.	.
8FF/	4r	.
8F/J	.	.
=52	=52	=52
8A\L	4.ee-\	f
8F\	.	.
8A\	.	.
8F\	16gg\LL	.
.	16ee-\JJ	.
8B-\	8dd\L	.
8F\J	8ff\J	.
=53	=53	=53
8e-\L	4.a/	.
8F\	.	.
8e-\	.	.
8F\	16cc\LL	.
.	16a\JJ	.
8d\	8b-\L	.
8F\J	16cc\L	.
.	16dd\JJ	.
=54	=54	=54
8A\L	16ee-\LL	.
.	16ff\	.
8F\	16ee-\	.
.	16dd\JJ	.
8A\	16ee-\LL	.
.	16gg\	.
8F\	16ff\	.
.	16ee-\JJ	.
8B-\	8dd\	.
8F\J	8r	.
=55	=55	=55
8F#\L	16cc\LL	.
.	16dd\	.
8d\	16cc\	.
.	16bn\JJ	.
8F#\	16cc\LL	.
.	16ee-\	.
8d\	16dd\	.
.	16cc\JJ	.
8G\	8b-\	.
8d\J	8r	.
=56	=56	=56
2En\ 2G\ 2c\	16r	.
.	16b-\LL	.
.	16cc\	.
.	16b-\JJ	.
.	16gg\LL	.
.	16b-\	.
.	16cc\	.
.	16b-\JJ	.
4F\ 4A\ 4c\	16r	.
.	16a\LL	.
.	16cc\	.
.	16ff\JJ	.
=57	=57	=57
2E\ 2G\ 2c\	16r	.
.	16b-\LL	.
.	16cc\	.
.	16b-\JJ	.
.	16gg\LL	.
.	16b-\	.
.	16cc\	.
.	16b-\JJ	.
4F\ 4A\ 4c\	16r	.
.	16a\LL	.
.	16cc\	.
.	16ff\JJ	.
=58	=58	=58
8B-'\	16r	.
.	16dd\LL	.
8r	16b-\	.
.	16g\JJ	.
8c'\	16r	.
.	16cc/LL	.
8r	16a/	.
.	16f/JJ	.
8C'/	16r	.
.	16b-/LL	.
8r	16g/	.
.	16e/JJ	.
=59	=59	=59
4F\ 4A\	8r	.
.	16f/LL	.
.	16g/JJ	.
4r	8a/L	.
.	8f/ 8a/	.
4r	8f/ 8a/	.
.	8f/ 8a/J	.
=60	=60	=60
8r	4a\ (4cc\	.
16c\LL	.	.
16Bn\JJ	.	.
8c\L	2g/ 2b-/)	f
8C\	.	.
8D\	.	.
8E\J	.	.
=61	=61	=61
4F\	8r	.
.	16ff\LL	.
.	16cc\JJ	.
4r	8a/L	.
.	8f/ 8a/	.
4r	8f/ 8a/	.
.	8f/ 8a/J	.
=62	=62	=62
8r	4a\ (4cc\	.
16c\LL	.	.
16Bn\JJ	.	.
8c\L	2g/ 2b-/)	.
8C\	.	.
8D\	.	.
8E\J	.	.
=63	=63	=63
8F\L	8.f/ 8.a/L	.
8BB-\J	.	.
.	16g/ 16b-/Jk	.
4C/	4f/ 4a/	.
4CC/	4e/ 4g/	.
=64	=64	=64
4FF/	8r	.
.	16ff\LL	.
.	16gg\JJ	.
4r	8aa\L	.
.	8ff\ 8aa\	.
4r	8ff\ 8aa\	.
.	8ff\ 8aa\J	.
*clefG2	*	*
=65	=65	=65
8r	4aa\ 4ccc\	.
16cc\LL	.	.
16bn\JJ	.	.
8cc/L	2gg\ 2bb-\	.
8c/	.	.
8d/	.	.
8e/J	.	.
=66	=66	=66
4f/	8r	.
.	16fff\LL	.
.	16ccc\JJ	.
4r	8aa\L	.
.	8ff\ 8aa\	.
4r	8ff\ 8aa\	.
.	8ff\ 8aa\J	.
=67	=67	=67
8r	4aa\ 4ccc\	.
16cc\LL	.	.
16bn\JJ	.	.
8cc/L	2gg\ 2bb-\	.
8c/	.	.
8d/	.	.
8e/J	.	.
=68	=68	=68
8f/L	16aa\LL	.
.	16ff\	.
8B-/J	16bb-\	.
.	16gg\JJ	.
4c/	8ff\ 8aa\L	.
.	8ff\ 8aa\	.
*clefF4	*	*
4C/	8ee\ 8gg\	.
.	8ee\ 8gg\J	.
=69	=69	=69
8F\ 8A\L	4.ff\	.
8F\ 8A\J	.	.
4F\ 4A\	.	.
.	16ee\LL	.
.	16dd\JJ	.
4r	16cc/LL	.
.	16b-/	.
.	16a/	.
.	16g/JJ	.
=70	=70	=70
8F\ 8A\L	4.f/	.
8F\ 8A\J	.	.
4F\ 4A\	.	.
.	16e/LL	.
.	16d/JJ	.
4r	16c/LL	.
.	16B-/	.
.	16A/	.
.	16G/JJ	.
=71	=71	=71
4FF/	4F/	.
4FF/ 4F/	4A/ 4c/ 4f/	.
4r	4r	.
==:|!	==:|!	==:|!
*-	*-	*-
!!!ENC: Craig Stuart Sapp
!!!END: 2004/11/26/
